(1001)
(T2  D=3.175 CR=0 - ZMIN=0 - flat end mill)
G90 G94
G17
G21
G28 G91 Z0
G90

(2D Contour1)
T2
S5000 M3
G54
M8
Z32.7
G0 X30.51 Y-56.318
Z7.7
G1 Z3.7 F333.3
Z0.317
G18 G2 X30.827 Z0 I0.317 K0 F1000
G1 X31.145
G17 G3 X31.462 Y-56 I0 J0.318
G1 Y-34.088
X10.637
Y-66.412
X31.462
Y-56
G3 X31.145 Y-55.682 I-0.317 J0
G1 X30.827
G18 G3 X30.51 Z0.317 I0 K0.317
G0 Z32.7
G17
M9
G28 G91 Z0
G90
G28 G91 X0 Y0
G90
M5
M30
