(1001)
(T3  D=2 CR=0 - ZMIN=0 - flat end mill)
G90 G94
G17
G21
G28 G91 Z0
G90

(2D Contour1 2)
T3
S5000 M3
G54
M8
G0 X20.9 Y-115.207
Z32.7
Z7.7
G1 Z3.7 F50
Z0.2
G18 G2 X21.1 Z0 I0.2 K0 F1000
G1 X21.3
G17 G3 X21.5 Y-115.007 I0 J0.2
X20.5 Y-115.007 I-0.5 J0
X21.5 Y-115.007 I0.5 J0
X21.3 Y-114.807 I-0.2 J0
G1 X21.1
G18 G3 X20.9 Z0.2 I0 K0.2
G0 Z22.7
X14.9 Y-115.211
Z7.7
G1 Z3.7 F50
Z0.2
G2 X15.1 Z0 I0.2 K0 F1000
G1 X15.3
G17 G3 X15.5 Y-115.011 I0 J0.2
X14.5 Y-115.011 I-0.5 J0
X15.5 Y-115.011 I0.5 J0
X15.3 Y-114.811 I-0.2 J0
G1 X15.1
G18 G3 X14.9 Z0.2 I0 K0.2
G0 Z22.7
X14.905 Y-104.214
Z7.7
G1 Z3.7 F50
Z0.2
X14.912 Z0.148 F1000
X14.932 Z0.1
X14.964 Y-104.213 Z0.059
X15.005 Y-104.212 Z0.027
X15.053 Y-104.211 Z0.007
X15.105 Y-104.209 Z0
X15.305 Y-104.205
G17 G3 X15.5 Y-104 I-0.005 J0.2
X14.5 Y-104.024 I-0.5 J-0.012
X15.5 Y-104 I0.5 J0.012
X15.295 Y-103.805 I-0.2 J-0.005
G1 X15.095 Y-103.81
X15.043 Y-103.811 Z0.007
X14.995 Y-103.812 Z0.027
X14.954 Y-103.813 Z0.059
X14.922 Y-103.814 Z0.1
X14.902 Z0.148
X14.895 Y-103.815 Z0.2
G0 Z22.7
X20.9 Y-104.208
Z7.7
G1 Z3.7 F50
Z0.2
G18 G2 X21.1 Z0 I0.2 K0 F1000
G1 X21.3
G17 G3 X21.5 Y-104.008 I0 J0.2
X20.5 Y-104.008 I-0.5 J0
X21.5 Y-104.008 I0.5 J0
X21.3 Y-103.808 I-0.2 J0
G1 X21.1
G18 G3 X20.9 Z0.2 I0 K0.2
G0 Z22.7
X26.9 Y-104.204
Z7.7
G1 Z3.7 F50
Z0.2
G2 X27.1 Z0 I0.2 K0 F1000
G1 X27.3
G17 G3 X27.5 Y-104.004 I0 J0.2
X26.5 Y-104.004 I-0.5 J0
X27.5 Y-104.004 I0.5 J0
X27.3 Y-103.804 I-0.2 J0
G1 X27.1
G18 G3 X26.9 Z0.2 I0 K0.2
G0 Z22.7
X32.9 Y-104.2
Z7.7
G1 Z3.7 F50
Z0.2
G2 X33.1 Z0 I0.2 K0 F1000
G1 X33.3
G17 G3 X33.5 Y-104 I0 J0.2
X32.5 Y-104 I-0.5 J0
X33.5 Y-104 I0.5 J0
X33.3 Y-103.8 I-0.2 J0
G1 X33.1
G18 G3 X32.9 Z0.2 I0 K0.2
G0 Z22.7
Y-93.2
Z7.7
G1 Z3.7 F50
Z0.2
G2 X33.1 Z0 I0.2 K0 F1000
G1 X33.3
G17 G3 X33.5 Y-93 I0 J0.2
X32.5 Y-93 I-0.5 J0
X33.5 Y-93 I0.5 J0
X33.3 Y-92.8 I-0.2 J0
G1 X33.1
G18 G3 X32.9 Z0.2 I0 K0.2
G0 Z22.7
X26.905 Y-93.202
Z7.7
G1 Z3.7 F50
Z0.2
X26.912 Z0.148 F1000
X26.932 Z0.1
X26.963 Y-93.201 Z0.059
X27.005 Y-93.2 Z0.027
X27.053 Y-93.199 Z0.007
X27.105 Y-93.197 Z0
X27.305 Y-93.192
G17 G3 X27.5 Y-92.988 I-0.005 J0.2
X26.5 Y-93.012 I-0.5 J-0.012
X27.5 Y-92.988 I0.5 J0.012
X27.295 Y-92.793 I-0.2 J-0.005
G1 X27.095 Y-92.798
X27.043 Y-92.799 Z0.007
X26.995 Y-92.8 Z0.027
X26.954 Y-92.801 Z0.059
X26.922 Y-92.802 Z0.1
X26.902 Z0.148
X26.895 Z0.2
G0 Z22.7
X20.905 Y-93.202
Z7.7
G1 Z3.7 F50
Z0.2
X20.912 Z0.148 F1000
X20.932 Z0.1
X20.963 Y-93.201 Z0.059
X21.005 Y-93.2 Z0.027
X21.053 Y-93.199 Z0.007
X21.105 Y-93.197 Z0
X21.305 Y-93.192
G3 X21.5 Y-92.988 I-0.005 J0.2
X20.5 Y-93.012 I-0.5 J-0.012
X21.5 Y-92.988 I0.5 J0.012
X21.295 Y-92.792 I-0.2 J-0.005
G1 X21.095 Y-92.797
X21.043 Y-92.799 Z0.007
X20.995 Y-92.8 Z0.027
X20.954 Y-92.801 Z0.059
X20.922 Y-92.802 Z0.1
X20.902 Z0.148
X20.895 Z0.2
G0 Z22.7
X14.905 Y-93.202
Z7.7
G1 Z3.7 F50
Z0.2
X14.912 Z0.148 F1000
X14.932 Z0.1
X14.964 Y-93.201 Z0.059
X15.005 Y-93.2 Z0.027
X15.053 Y-93.199 Z0.007
X15.105 Y-93.197 Z0
X15.305 Y-93.192
G3 X15.5 Y-92.988 I-0.005 J0.2
X14.5 Y-93.012 I-0.5 J-0.012
X15.5 Y-92.988 I0.5 J0.012
X15.295 Y-92.792 I-0.2 J-0.005
G1 X15.095 Y-92.797
X15.043 Y-92.799 Z0.007
X14.995 Y-92.8 Z0.027
X14.954 Y-92.801 Z0.059
X14.922 Y-92.802 Z0.1
X14.902 Z0.148
X14.895 Z0.2
G0 Z22.7
X11.4 Y-85.2
Z7.7
G1 Z3.7 F50
Z0.2
G18 G2 X11.6 Z0 I0.2 K0 F1000
G1 X11.8
G17 G3 X12 Y-85 I0 J0.2
X10 Y-85 I-1 J0
X12 Y-85 I1 J0
X11.8 Y-84.8 I-0.2 J0
G1 X11.6
G18 G3 X11.4 Z0.2 I0 K0.2
G0 Z22.7
X32.4 Y-85.2
Z7.7
G1 Z3.7 F50
Z0.2
G2 X32.6 Z0 I0.2 K0 F1000
G1 X32.8
G17 G3 X33 Y-85 I0 J0.2
X31 Y-85 I-1 J0
X33 Y-85 I1 J0
X32.8 Y-84.8 I-0.2 J0
G1 X32.6
G18 G3 X32.4 Z0.2 I0 K0.2
G0 Z22.7
X32.9 Y-115.2
Z7.7
G1 Z3.7 F50
Z0.2
G2 X33.1 Z0 I0.2 K0 F1000
G1 X33.3
G17 G3 X33.5 Y-115 I0 J0.2
X32.5 Y-115 I-0.5 J0
X33.5 Y-115 I0.5 J0
X33.3 Y-114.8 I-0.2 J0
G1 X33.1
G18 G3 X32.9 Z0.2 I0 K0.2
G0 Z22.7
X26.9 Y-115.204
Z7.7
G1 Z3.7 F50
Z0.2
G2 X27.1 Z0 I0.2 K0 F1000
G1 X27.3
G17 G3 X27.5 Y-115.004 I0 J0.2
X26.5 Y-115.004 I-0.5 J0
X27.5 Y-115.004 I0.5 J0
X27.3 Y-114.804 I-0.2 J0
G1 X27.1
G18 G3 X26.9 Z0.2 I0 K0.2
G0 Z22.7
X22.4 Y-135.2
Z7.7
G1 Z3.7 F50
Z0.2
G2 X22.6 Z0 I0.2 K0 F1000
G1 X22.8
G17 G3 X23 Y-135 I0 J0.2
X20 Y-135 I-1.5 J0
X23 Y-135 I1.5 J0
X22.8 Y-134.8 I-0.2 J0
G1 X22.6
G18 G3 X22.4 Z0.2 I0 K0.2
G0 Z32.7
G17
M9
G28 G91 Z0
G90
G28 G91 X0 Y0
G90
M5
M30
